X:1
T:Bøi Dit Øre Og Hør Til
T:Bøi Dit Øre Og Hør Til
T:Nedtegnet med siffernoter av Ole Andersen Mærlie (1873)
L:1/8
Q:1/4=70
M:3/4
K:F
V:1 treble nm="Stemme" snm="St."
V:1
 FG |"F" A2 (BA)"C7" GA |"F" F4 AB | (c2"Bb" d)c"C7" Bc |"F" A4 AB | c3 d"C7" BB | %6
w: Bøi dit|ø- re * og hør|til. Hør hvad|jeg * for- tel- le|vil. Vil I|hø- re skal I|
"F" A2"C7" G2 BB |"F" A3 G"Dm" FE |"G" D2"C" C2"F" AB |"C7" G3 B"F" AB | c4"C7" BB | %11
w: ti- e, om det|var en Stund at|bi- e saa vil|jeg for- tel- le|Nyt hvad jeg|
"F" A3 A"C7" GA |"F" F4 |] %13
w: har i Sø- rum|sedt.|

